X:1
T:Book 2 (after Slovakian Folksongs)
T:33. Deep in the Forest
T:For Children Nr 33, Sz 42 
T:33. Deep in the Forest
T:Book 2 (after Slovakian Folksongs)
T:Béla Bartók Revised and Arranged by the Composer, January 1945 
T:Oli 2020
C:Bartok, Bela
Z:Oli 2020
%%score { ( 1 4 ) | ( 2 3 ) }
L:1/8
Q:1/4=75
M:2/4
K:C
V:1 treble nm="Piano"
V:4 treble 
V:2 bass 
V:3 bass 
V:1
"^Poco andante" z4 | z4 | z4 | z4 |!p!"^espressivo" (!3!FG/F/ED | !2!A!<(!!3!_B/A/!1!G/^F/!1!G | %6
 !5!A!<)!G/F/ED- | !5!AG/F/ED) | z4 |"^cresc." (!tenuto!AG/F/.E.D) | z4 | (!tenuto!AG/F/.E.D) | %12
!f!"^stringendo"[Q:1/4=85]"^T" !>!!1!!3![A,C]3 !>![A,C]- |[Q:1/4=95]"^T" [A,C]3 !>![A,C]- | %14
[Q:1/4=105]"^T" [A,C]3[Q:1/4=110]"^T" !>![A,C]- | !fermata![A,C]4 | %16
"^a tempo"!p![Q:1/4=75]"^T" (!tenuto!!3!DE/D/CB, | !2!EF/E/!1!D/!2!^C/D | %18
 !tenuto!!3!ED/C/!2!B,!1!A,- |"^cresc." ED/C/B,A,- | A,4) |!p!!>(! (!tenuto!!5!ED/C/_B,A,-) | %22
 A,4-!>)! |"_rit."[Q:1/4=65]"^T" A,4 |"^a tempo"[Q:1/4=75]"^T" z4 | z4 | z4 | z4 | %28
[K:bass] (!tenuto!F,G,/F,/E,D, | A,_B,/A,/G,/!fermata!^F,/G,) | %30
[K:treble]!pp! z"^rit."[Q:1/4=65]"^T" (!tenuto!_B/A/G/!fermata!^F/G) | %31
"^a tempo"[Q:1/4=75]"^T" !>!A4- | A4- | (!>!AG/F/ED) |!p!"^rit."[Q:1/4=65]"^T" (AG/F/ED) | %35
 (!tenuto!A2 !tenuto!G!tenuto!F | !>!E4) | (!>![Ge]3[I:staff +1] [DA]) | %38
!pp![I:staff -1] !>![ae']4- | !fermata![ae']2 z2 |] %40
V:2
!p!!<(! (D,E,/F,/.G,!<)!.A,) |!<(! (D,E,/F,/.G,!<)!.A,) |!<(! (D,E,/F,/.G,!<)!.A, | %3
 !>!!fermata!_B,4- | B,4) | z2 D2 | E2 z2 | F,4 | %8
!mf!!ped! (!>!!3!!1![F,C]3 !>!!5!!2![_B,,F,]-)!ped-up! | [B,,F,]4 | %10
!mf!!ped! (!>!!3!!1![F,C]3 !>!!5!!2![G,,D,]-)!ped-up! | [G,,-D,]4 |!<(! (G,,A,,/B,,/C,D,)!<)! | %13
!<(! (G,,A,,/B,,/C,D,)!<)! |!<(! (G,,A,,/B,,/C,!1!D,)!<)! | !>!!fermata!!4!D,4- | F,4 | _B,4 | %18
 A,2 z2 | !2!=B,,4 |!f! (!>!!3!!1![A,,E,]3 !>!!5!!2![E,,A,,]) | z4 | %22
 (!>!!3!!1![A,,E,]3 !5!!2![E,,A,,]) | (!>!!3!!1![A,,E,]3 !5!!2![E,,A,,]) | %24
!p!!<(! (D,,E,,/F,,/.G,,.A,,)!<)! |!<(! (D,,E,,/F,,/.G,,.A,,)!<)! |!<(! (D,,E,,/F,,/.G,,.A,,!<)! | %27
 !>!!fermata!!2!_B,,4-) | B,,4- | (B,,2- [_E,,B,,]2) | z2 !tenuto!.[_E,_B,]2 | z4 | %32
 (!>![A,E]3 !>![D,A,]) | !>![A,E]2 z2 | z4 | z4 |!ped! (!>![A,E]3 [D,A,]) | x3[K:treble] x | z4 | %39
 !>!!fermata![da]2!ped-up! z2 |] %40
V:3
 x4 | x4 | x4 | x4 | x4 | C4 | F,4- | _B,,4 | x4 | x4 | x4 | x4 | x4 | x4 | x4 | x4 | !2
4
!D,4- | %17
 !1
4
!D,4 | !1
5
!C,4 | x4 | x4 | x4 | x4 | x4 | x4 | x4 | x4 | x4 | x4 | x4 | x4 | x4 | x4 | x4 | %34
 x4 | x4 | x4 | x3[K:treble] x | x4 | x4 |] %40
V:4
 x4 | x4 | x4 | x4 | x4 | x4 | x4 | D4 | x4 | x4 | x4 | x4 | x4 | x4 | x4 | x4 | x4 | x4 | x4 | %19
 A,2 z2 | x4 | x4 | x4 | x4 | x4 | x4 | x4 | x4 |[K:bass] x4 | x4 |[K:treble] x4 | x4 | x4 | x4 | %34
 x4 | x4 | x4 | x4 | x4 | x4 |] %40

